X: 1014
T:First House in Connaught, The (A6)
N: page A6
N: heptatonic
N: matches 270
R:reel
S:Mike Rafferty
Z:Lesl and #54 John B. Walsh
M:C|
K:G
|:"G"DG~G2 "D7"BG~G2|"G"BGdG "G/B"BG G2|"Am"DF~F2 "D7" AF~F2|"Am"ABcA "D7"BGAF|
"G"DGG2 "Am"BGG2|"Bm"BGdG "G"BGG2|defg agfd|"D7" cAFA "G"G4::
Bd|"G" g2 ga "Am"gfd2|"G/B"gabg "A7"agde|"D"f2 de "Am"f2de|"D"fgaf "D7/F#" (3gag af|
"G"g3a "Am"gfde|"Bm"gabg "D7/A"agfe|"D7"defg "Am"agfd |"D7" cAFA "G"G4:|
